X:1
T:Don’t Lose the Vision
T:Don’t Lose the Vision
T:Kittie Louise Suffield
T:Frederick W. Suffield, 1920
T:Public Domain Courtesy of the Cyber Hymnal™
T:Public Domain Courtesy of the Cyber Hymnal™
C:Kittie Louise Suffield
Z:Public Domain
Z:Courtesy of the Cyber Hymnal™
%%score ( 1 2 ) ( 3 4 )
L:1/8
Q:1/4=110
M:12/8
K:F
V:1 treble 
V:2 treble 
V:3 bass 
V:4 bass 
V:1
 [Fc] | [Fc]2 [CA] [Fd]2 [Fd] [Fc]2 [CA] [CF]2 [A,C] | D3 [_DF]3 [CA]3- [CA]2 [Fc] | %3
w: 1.~O|have you had the vi- sion, have you|heard the cry * Of|
w: 2.~The|young men shall see vi- sions and the|old dream dreams, * The|
w: 3.~I-|sai- ah had a vi- sion of the|Lord on high * Whose|
w: 4.~The|vi- sion of the pro- phet showed to|him his sin; * He|
w: 5.~The|fields are white to har- vest, have you|heard the call? * The|
 [Fc]2 [FA] [Fd]2 [Fd] [Fc]2 [CA] [CG]2 [CF] | [FA]2 [FG] [FG]2 [GA] [EG]3- [EG]2 [Ec] | %5
w: mill- ions lost and per- ish- ing, O|do not let them die; * Their|
w: wild- er- ness be wa- tered, in the|des- ert shall be streams, * The|
w: train filled all the tem- ple and he|heard the ser- aph cry; * O|
w: cried out, “Woe is me! for I am|still un- clean with- in”; * The|
w: Spir- it now is wait- ing, won’t you|yield to Him our all? * The|
 [Fc]2 [CA] [Fd]2 [Fd] [Fc]2 [CA] [CF]2 [A,C] | D3 [_DF]3 [CA]6 | %7
w: souls have all been pur- chased at how|great a cost!|
w: Spir- it poured up- on us, cleans- ing|from all dross,|
w: Ho- ly, Ho- ly, Ho- ly, is the|Lord of hosts,|
w: fire from off the al- tar purged his|heart from dross,|
w: time is swift- ly pass- ing, O! the|fear- ful loss,|
 [CF]3 [CF]2 [CG] [FA] [Fc]2 F2 [FG] | [FA]2 [CF] [EG]2 [EG] F6 || %9
w: Don’t lose the vi- sion, keep your|eye up- on the cross.|
w: Don’t lose the vi- sion, keep your|eye up- on the cross.|
w: Don’t lose the vi- sion, keep your|eye up- on the cross.|
w: Don’t lose the vi- sion, keep your|eye up- on the cross.|
w: Don’t lose the vi- sion, keep your|eye up- on the cross.|
"^Refrain" [Fc]3 [Fc]2 [Fc] [Fd] [Fc]2 [FA]2 [CA] | [FA]2 [CA] [DA]2 [_DA] [CA]6 | %11
w: ||
w: ||
w: ||
w: ||
w: ||
 [Fc]3 [Fc]2 [Fc] [Fd] [Fc]2 [CA]2 [FA] | [EB]2 [FB] [GB]2 [FB] [EB]3 [EG]2 [FA] | %13
w: ||
w: ||
w: ||
w: ||
w: ||
 [GB]2 [^FA] [GB]2 [FA] [GB] [EG]2 [=FA]2 [GB] | [Ac]2 [^G=B] [Ac]2 [GB] [Ac] [FA]4 z | %15
w: ||
w: ||
w: ||
w: ||
w: ||
 [Fd]3 [Fe]2 [Fd] [Fc] [CA]2 F2 [FG] | [FA]2 [CF] [EG]2 [EG] F6 |] %17
w: ||
w: ||
w: ||
w: ||
w: ||
V:2
 x | x12 | _D3 x9 | x12 | x12 | x12 | _D3 x9 | x9 F2 x | x6 F6 || x12 | x12 | x12 | x12 | x12 | %14
 x12 | x9 F2 x | x6 F6 |] %17
V:3
 [F,A,] | [F,A,]2 [F,A,] [F,B,]2 [F,B,] [F,A,]2 [F,A,] [F,A,]2 F, | %2
w: ~|~ ~ ~ ~ ~ ~ ~ ~|
 [B,,F,]3 [B,,F,]3 F,3- F,2 [F,A,] | [F,A,]2 [F,A,] [F,B,]2 [F,B,] [F,A,]2 [F,A,] [F,B,]2 [F,A,] | %4
w: ~ ~ ~ * ~|~ ~ ~ ~ ~ ~ ~ ~|
 [D,=B,]2 [D,B,] [G,B,]2 [G,B,] [C,_B,]3- [C,B,]2 [C,B,] | %5
w: ~ ~ ~ ~ ~ * ~|
 [F,A,]2 [F,A,] [F,B,]2 [F,B,] [F,A,]2 [F,A,] [F,A,]2 F, | [B,,F,]3 [B,,B,]3 [F,A,]6 | %7
w: ~ ~ ~ ~ ~ ~ ~ ~|~ ~ ~|
 [F,A,]3 [F,A,]2 [F,B,] [F,C] [F,A,]2 [D,A,]2 [D,=B,] | [C,C]2 [C,B,] [C,B,]2 [C,B,] [F,A,]6 || %9
w: ~ ~ ~ ~ ~ ~ ~|~ ~ ~ ~ ~|
 [F,A,]3 [F,A,]2 [F,A,] [F,B,] [F,A,]2 [F,C]2 [F,A,] | [F,C]2 [F,A,] [F,A,]2 [F,A,] [F,A,]6 | %11
w: Don’t lose the vi- sion, keep your|eye up- on the cross;|
 [F,A,]3 [F,A,]2 [F,A,] [F,B,] [F,A,]2 F,2 [F,A,] | [G,C]2 [F,C] [E,C]2 [D,C] [C,C]3 C,2 C, | %13
w: Don’t lose the vi- sion, or the|cause will suf- fer loss; If you|
 C,2 C, C,2 C, C,2 C, C,2 C, | F,2 F, F,2 F, F, F,4 z | %15
w: want to reach a- no- ther, Keep in|touch with Christ, my bro- ther,|
 [B,,B,]3 [B,,C]2 [D,B,] [F,A,] [F,A,]2 [D,=B,]2 [D,B,] | [C,C]2 [C,A,] [C,B,]2 [C,B,] [F,A,]6 |] %17
w: Don’t lose the vi- sion, keep your|eye up- on the cross.|
V:4
 x | x11 F, | x6 F,3- F,2 x | x12 | x12 | x11 F, | x12 | x12 | x12 || x12 | x12 | x9 F,2 x | x12 | %13
 x12 | x12 | x12 | x12 |] %17

